!!!!SEGMENT: pl-kozmzk--mzk-m-26--006_stefani-jozef--msza-swieta-sanctus.krn
!!!cenid: 18xx:2950
!!!COM: Stefani, Józef
!!!COM-rismid: pe30024097
!!!CDT: 1800/04/16-1876/03/19
!!!CNT: Polish
!!!OPR: Msza Święta
!!!OTL: Sanctus
!!!OMV: 006
!!!PDT:
!!!AGN: Sacred; Mass
!!!SMS-siglum: PL-KOZmzk
!!!SMS-shelfmark: mzk/m/26
!!!SMS-shelfwork: 001-006 M
!!!SMS-variant:
!!!SMS-altvar:
!!!NIFC-rismid: 1001024881
!!!URL-scan: https://repozytorium.nifc.pl/islandora/object/pl-kozmzk%3A12693/datastream/PDF/view
!!!ONB-nifc: UWAGA: Części mszy: 1. Kyrie, 2. Gloria, 3. Graduale, 4. Credo, 5. Offertorium,
!!!OMD: Adagio.
**kern	**kern	**kern	**text	**dynam	**kern	**text	**dynam	**kern	**text	**dynam
*group2	*group2	*group1	*	*	*group1	*	*	*group1	*	*
*part4	*part4	*part3	*part3	*part3	*part2	*part2	*part2	*part1	*part1	*part1
*staff5	*staff4	*staff3	*staff3	*	*staff2	*staff2	*	*staff1	*staff1	*
*Iempty	*Iempty	*Iempty	*	*	*Iempty	*	*	*Iempty	*	*
*I"	*I"	*I"	*	*	*I"	*	*	*I"	*	*
*clefF4	*clefG2	*clefF4	*	*	*clefC4	*	*	*clefC4	*	*
*>[A,B,B1,B,B2,C]	*>[A,B,B1,B,B2,C]	*>[A,B,B1,B,B2,C]	*	*	*>[A,B,B1,B,B2,C]	*	*	*>[A,B,B1,B,B2,C]	*	*
*>A	*>A	*>A	*	*	*>A	*	*	*>A	*	*
*k[b-e-]	*k[b-e-]	*k[b-e-]	*	*	*k[b-e-]	*	*	*k[b-e-]	*	*
*B-:	*B-:	*B-:	*	*	*B-:	*	*	*B-:	*	*
*M4/4	*M4/4	*M4/4	*	*	*M4/4	*	*	*M4/4	*	*
*met(c)	*met(c)	*met(c)	*	*	*met(c)	*	*	*met(c)	*	*
*2\right	*2\right	*2\right	*	*	*2\right	*	*	*2\right	*	*
=1	=1	=1	=1	=1	=1	=1	=1	=1	=1	=1
!	!	!	!	!	!	!	!	!LO:TX:b:t=Strofa 1.)	!	!
!	!	!	!	!	!LO:TX:b:t=strofa 2.)	!	!	!	!	!
4r	4r	2r	.	.	2r	.	.	2r	.	.
2.F 2.FF/	4a 4f/	.	.	.	.	.	.	.	.	.
.	4g 4en/	4r	.	.	4r	.	.	4r	.	.
!!LO:TX:t=P:problem:wężowate segno na kresce
=!|:	=!|:	=!|:	=!|:	=!|:	=!|:	=!|:	=!|:	=!|:	=!|:	=!|:
*>B	*>B	*>B	*	*	*>B	*	*	*>B	*	*
.	4cc 4a 4e-X/	4F\	.	.	4A\	Po-	.	4c\	U-	.
=2	=2	=2	=2	=2	=2	=2	=2	=2	=2	=2
4.F 4.BB-/	4.dd 4.b- 4.d/	4.BB-/	.	.	4.B-\	-wta-	.	4.d\	-pa-	.
8F 8BB-/	8dd 8b- 8f/	8BB-/	.	.	8F/	-rzaj	.	8d\	-dnij	.
2F 2BB-/	2dd 2b- 2f/	4BB-/	.	.	4F/	ludz-	.	4d\	na	.
.	.	4BB-/	.	.	4F/	-ki	.	4d\	ko-	.
=3	=3	=3	=3	=3	=3	=3	=3	=3	=3	=3
!	!0	!	!	!	!	!	!	!0	!	!
1F 1AA	2ff 2cc [2f\	2AA/	.	.	2F/	ro-	.	2f\	-la-	.
.	2cc 2f\]	4AA/	.	.	4F/	-dzie	.	4c\	-na	.
.	.	4r	.	.	4r	.	.	4r	.	.
=4	=4	=4	=4	=4	=4	=4	=4	=4	=4	=4
2.G 2.GG/	2.dd 2.b- 2.g\	4.GG/	.	.	4.B-\	Bo-	.	4.d\	Lu-	.
.	.	8GG/	.	.	8B-\	-giem	.	8d\	-dy	.
.	.	4G\	.	.	4B-\	prze-	.	4d\	czcią	.
4G-X 4GG-X/	4een 4cc 4b-/	4G-X\	.	.	4B-\	-ni-	.	4en\	prze-	.
!!LO:LB:g=original
=5	=5	=5	=5	=5	=5	=5	=5	=5	=5	=5
*	*^	*	*	*	*	*	*	*	*	*
!	!	!	!0	!	!	!	!	!	!	!	!
[2F [2FF/	[2ff [2cc/	4b-\	2F\	.	.	(4B-\	-knię-	.	2f\	-ię-	.
.	.	8a\L	.	.	.	8A\L	.	.	.	.	.
.	.	8g\J	.	.	.	8G\J)	.	.	.	.	.
4F] 4FF;/]	4ff] 4cc;/]	4a\	4F;\	.	.	4A;\	-ty	.	4f;\	-ty	.
4F 4FF/	4ff 4a/	4a\	4F\	.	.	4A\	Na	.	4f\	U-	.
*	*v	*v	*	*	*	*	*	*	*	*	*
=6	=6	=6	=6	=6	=6	=6	=6	=6	=6	=6
2.E- 2.EE-/	2.gg 2.b-\	4.E-\	.	.	4.B-\	wscho-	.	4.g\	-wiel-	.
.	.	8E-\	.	.	8B-\	-dzie	.	8g\	-biaj	.
.	.	4E-\	.	.	4B-\	i	.	4g\	twe-	.
4C 4CC/	4ee- 4cc\	4C/	.	.	4c\	za-	.	4e-\	-go	.
=7	=7	=7	=7	=7	=7	=7	=7	=7	=7	=7
*^	*^	*	*	*	*	*	*	*	*	*
!	!	!	!	!	!	!	!0	!	!	!	!	!
[2F 2FF/	2ryy	4.cc/	2a\	2F\	.	.	2A\	-cho-	.	(4.c\	Pa-	.
.	.	8cc#X/	.	.	.	.	.	.	.	8c#X\)	.	.
4F/]	4BB-\	4dd/	4b-\	4BB-/	.	.	4B-\	-dzie	.	4d\	-na	.
4B- 4BB-\	4ryy	4ff/	4a-X\	[4BB-/	Swię-	.	(4A-X\	Swię-	.	(4f\	Swię-	.
*v	*v	*	*	*	*	*	*	*	*	*	*	*
=8	=8	=8	=8	=8	=8	=8	=8	=8	=8	=8	=8
!0	!	!	!	!	!	!	!	!	!	!	!
[2.B- [>2.BB-\	4ff/	2g\	4BB-/]	.	.	4G/)	.	.	4f\)	.	.
.	4ee-/	.	4BB-/	-[ty	.	4G/	-[ty	.	4e-\	-ty	.
.	(<4dd/	4f#X\	4.BB-/	swię-	.	(4F#X/	swię-	.	(4d\	swię-	.
8B-]L 8BB-\]	8ee-/L)	4g\	.	.	.	8G/)	.	.	8e-\)	.	.
8E-\J	8cc/J	.	8E-\	ty]	.	8G/	-ty]	.	8c\	-ty	.
!!LO:LB:g=original
=9	=9	=9	=9	=9	=9	=9	=9	=9	=9	=9	=9
*	*	*^	*	*	*	*	*	*	*	*	*
[2F\	2dd/ 2.b-/	1f	2.ryy	1F	.	.	2.B-\	.	.	(2d\	swię-	.
2F] 2FF/	4cc/	.	.	.	.	.	.	.	.	4c\	.	.
.	4ff/	.	4a\	.	.	.	4A\	.	.	4f\)	.	.
*	*	*v	*v	*	*	*	*	*	*	*	*	*
=10	=10	=10	=10	=10	=10	=10	=10	=10	=10	=10	=10
2F 2BB-\	2dd 2b-/	2f\	2BB-/	.	.	2B-\	.	.	2d\	-ty	.
4r	4r	4ryy	4r	.	.	4r	.	.	4r	.	.
!	!	!	!	!	!LO:DY:a	!	!	!LO:DY:a	!	!	!LO:DY:a
4D\	[4dd [4d/	4d\	4D\	.	f	4d\	2. Pan	f	4d\	1. Za-	f
*	*v	*v	*	*	*	*	*	*	*	*	*
=11	=11	=11	=11	=11	=11	=11	=11	=11	=11	=11
4.D\	4.dd] 4.d/]	4.D\	.	.	4.d\	wiecz-	.	4.d\	-brzmij-	.
8D\	8dd 8d/	8D\	.	.	8d\	-ny	.	8d\	-cie	.
2D\	2dd 2d/	4D\	.	.	4d\	zaw-	.	4d\	zna-	.
.	.	4D\	.	.	4d\	-sze	.	4d\	-mi	.
=12	=12	=12	=12	=12	=12	=12	=12	=12	=12	=12
2F\	2ff 2f/	2F\	.	.	2f\	wszę-	.	2f\	Nie-	.
4D\	4dd 4d/	4D\	.	.	4d\	-dzie	.	4d\	-ba	.
4r	4r	4r	.	.	4r	.	.	4r	.	.
=13	=13	=13	=13	=13	=13	=13	=13	=13	=13	=13
!	!	!	!	!LO:DY:a	!	!	!LO:DY:a	!	!	!LO:DY:a
2.F 2.D\	2.b- 2.f 2.B-/	4.D\	.	p	4.F/	ku	p	4.B-\	Bóg	p
.	.	8D\	.	.	8F/	nam	.	8B-\	nasz	.
.	.	4D\	.	.	4F/	łas-	.	4B-\	nie-	.
4F 4C 4AA/	4cc 4f 4c/	4AA/	.	.	4F/	-ką	.	4d\	-po-	.
!!LO:PB:g=original
=14	=14	=14	=14	=14	=14	=14	=14	=14	=14	=14
*	*^	*	*	*	*	*	*	*	*	*
2.F 2.BB-/	2.dd 2.b- 2.f 2.d/	2ryy	2BB-/	.	.	2F/	zdię-	.	2d\	-ię-	.
.	.	4ryy	4BB-/	.	.	4F/	-ty	.	4d\	-ty	.
4B- 4BB-\	4dd 4a-X/	4f\	4BB-/	.	.	4A-X/	niech	.	4d\	wpo-	.
=15	=15	=15	=15	=15	=15	=15	=15	=15	=15	=15	=15
1B- 1BB-	4ff/	4.g\	4.BB-/	.	.	4.G/	wiecz-	.	(4f\	-sta-	.
.	8ee-/L	.	.	.	.	.	.	.	8e-\)	.	.
.	8dd/J	8g#X\	8BB-/	.	.	8F#X/	-nie	.	8d\	-ci	.
.	4ee-/	4g#\	4BB-/	.	.	4G/	wiel-	.	4e-\	przy-	.
.	4dd/	4fn\	4BB-/	.	.	4Fn/	-bion	.	4d\	-szedł	.
=16	=16	=16	=16	=16	=16	=16	=16	=16	=16	=16	=16
2c 2G 2E-\	8cc/L	2g\	2E-\	.	.	2G/	bę-	.	(8c\L	chle-	.
.	16dd/L	.	.	.	.	.	.	.	16d\L	.	.
.	16cc/JJ	.	.	.	.	.	.	.	16c\JJ	.	.
.	8b-/L	.	.	.	.	.	.	.	8B-\L	.	.
.	8cc/J	.	.	.	.	.	.	.	8c\J)	.	.
4d 4A 4D\	4dd/	4f#X\	4D\	.	.	4F#X/	-dzie	.	4d\	-ba	.
4r	4r	4ryy	4r	.	.	4r	.	.	4r	.	.
*	*v	*v	*	*	*	*	*	*	*	*	*
=17	=17	=17	=17	=17	=17	=17	=17	=17	=17	=17
!	!	!	!	!LO:DY:a	!	!	!LO:DY:a	!	!	!LO:DY:a
2c 2G 2E- 2C\	2ee- 2g 2e-/	2C/	.	f	2G/	Swię-	f	2e-\	.	f
2c 2G 2E-\	2cc 2g/	2E-\	.	.	2G/	-ty	.	2c\	.	.
!!LO:LB:g=original
=18	=18	=18	=18	=18	=18	=18	=18	=18	=18	=18
*^	*^	*	*	*	*	*	*	*	*	*
1d 1B-	4F\	1dd 1b-	4f\	(4F\	.	.	2B-\	Swię-	.	2d\	.	.
.	4F#X\	.	4f#X\	4F#X\)	.	.	.	.	.	.	.	.
.	4G\	.	4g\	(4G\	.	.	2B-\	-ty	.	2d\	.	.
.	4Fn\	.	4fn\	4Fn\)	.	.	.	.	.	.	.	.
=19	=19	=19	=19	=19	=19	=19	=19	=19	=19	=19	=19	=19
2.c 2.B-/	8E-\L	2ryy	2.cc 2.b-/ 2.g\	(8E-\L	.	.	(2.B-\	Swię-	.	((2c\	.	.
.	8C\	.	.	8C\	.	.	.	.	.	.	.	.
.	8D\	.	.	8D\	.	.	.	.	.	.	.	.
.	8E-\J	.	.	8E-\J	.	.	.	.	.	.	.	.
.	4d 4B-/	4dd 4b-/	.	4F\	.	.	.	.	.	4d\)	.	.
8.cL 8.A/	8.F\L	8.ccL 8.a/	4f\	8.F\L	.	.	8.A\L	.	.	8.c\L)	.	.
16dJk 16B-/	16BB-\Jk	16ddJk 16b-/	.	16BB-\Jk)	.	.	16B-\Jk)	.	.	16d\Jk	.	.
*v	*v	*	*	*	*	*	*	*	*	*	*	*
=20	=20	=20	=20	=20	=20	=20	=20	=20	=20	=20	=20
4d 4B-\	4dd 4b-/	4f\	4BB-/	.	.	4B-\	-ty.	.	4d\	.	.
[2.B- [>2.BB-\	(4bb- 4dd\	4ryy	4r	.	.	4r	.	.	4r	.	.
.	4gg 4ee-\	2ryy	2r	.	.	2r	.	.	2r	.	.
.	4aa 4ff 4ee- 4cc\	.	.	.	.	.	.	.	.	.	.
*	*v	*v	*	*	*	*	*	*	*	*	*
=21	=21	=21	=21	=21	=21	=21	=21	=21	=21	=21
1B-_ 1BB-_>	2bb- 2ff 2dd\	1r	.	.	1r	.	.	1r	.	.
.	4gg 4ee-\	.	.	.	.	.	.	.	.	.
.	4aa 4ff 4ee- 4cc\)	.	.	.	.	.	.	.	.	.
!!LO:LB:g=original
=22	=22	=22	=22	=22	=22	=22	=22	=22	=22	=22
1B-] 1BB-]	4bb- 4ff 4dd\	1ryy	.	.	1ryy	.	.	1ryy	.	.
.	4aa 4ff\	.	.	.	.	.	.	.	.	.
.	4gg 4ee-\	.	.	.	.	.	.	.	.	.
.	4ff 4dd\	.	.	.	.	.	.	.	.	.
=23	=23	=23	=23	=23	=23	=23	=23	=23	=23	=23
8qqE- 8qqBB-/	.	.	.	.	.	.	.	.	.	.
*	*^	*	*	*	*	*	*	*	*	*
4B-\	2.ee-/	2.cc\	1ryy	.	.	1ryy	.	.	1ryy	.	.
8A\L	.	.	.	.	.	.	.	.	.	.	.
8G\J	.	.	.	.	.	.	.	.	.	.	.
4A\	.	.	.	.	.	.	.	.	.	.	.
4F\	4ff 4a\	4ryy	.	.	.	.	.	.	.	.	.
*	*v	*v	*	*	*	*	*	*	*	*	*
=24	=24	=24	=24	=24	=24	=24	=24	=24	=24	=24
4B-\	1dd 1b-	1ryy	.	.	1ryy	.	.	1ryy	.	.
4D\	.	.	.	.	.	.	.	.	.	.
4G\	.	.	.	.	.	.	.	.	.	.
4F\	.	.	.	.	.	.	.	.	.	.
=25	=25	=25	=25	=25	=25	=25	=25	=25	=25	=25
*	*^	*	*	*	*	*	*	*	*	*
4E-\	2cc/	2b-\	1ryy	.	.	1ryy	.	.	1ryy	.	.
4En\	.	.	.	.	.	.	.	.	.	.	.
*	*v	*v	*	*	*	*	*	*	*	*	*
4F\	4dd 4b-\	.	.	.	.	.	.	.	.	.
4FF/	4cc 4a\	.	.	.	.	.	.	.	.	.
=26	=26	=26	=26	=26	=26	=26	=26	=26	=26	=26
*>B1	*>B1	*>B1	*>B1	*>B1	*>B1	*>B1	*>B1	*>B1	*>B1	*>B1
*	*^	*	*	*	*	*	*	*	*	*
4BB-/	2b-/	2b-\	1ryy	.	.	1ryy	.	.	1ryy	.	.
4B- 4BB-\	.	.	.	.	.	.	.	.	.	.	.
4G 4GG/	4dd [4b-\	2ryy	.	.	.	.	.	.	.	.	.
4G-X 4GG-X/	4een 4b-\]	.	.	.	.	.	.	.	.	.	.
*	*v	*v	*	*	*	*	*	*	*	*	*
!!LO:LB:g=original
=27	=27	=27	=27	=27	=27	=27	=27	=27	=27	=27
1F 1FF/	4ff 4a\	2ryy	.	.	2ryy	.	.	2ryy	.	.
.	4a 4f/	.	.	.	.	.	.	.	.	.
.	4b- 4g 4en/	4ryy	.	.	4ryy	.	.	4ryy	.	.
!!LO:TX:t=P:problem:wężowate segno na kresce
=:|!	=:|!	=:|!	=:|!	=:|!	=:|!	=:|!	=:|!	=:|!	=:|!	=:|!
.	4cc 4a 4e-X/	4ryy	.	.	4ryy	.	.	4ryy	.	.
=28	=28	=28	=28	=28	=28	=28	=28	=28	=28	=28
*>B2	*>B2	*>B2	*>B2	*>B2	*>B2	*>B2	*>B2	*>B2	*>B2	*>B2
4BB-/	4dd\	1ryy	.	.	1ryy	.	.	1ryy	.	.
4r	4r	.	.	.	.	.	.	.	.	.
2B- 2BB-\	2ee- 2b- 2g-X/	.	.	.	.	.	.	.	.	.
=29	=29	=29	=29	=29	=29	=29	=29	=29	=29	=29
4B- 4BB-\	4dd 4b- 4f/	1ryy	.	.	1ryy	.	.	1ryy	.	.
4r	4r	.	.	.	.	.	.	.	.	.
[2B- [>2BB-\	2ee-/ 2b-/ 2g-X/	.	.	.	.	.	.	.	.	.
=30	=30	=30	=30	=30	=30	=30	=30	=30	=30	=30
*>C	*>C	*>C	*	*	*>C	*	*	*>C	*	*
1B-_ 1BB-_>	2dd 2b- 2f/	1ryy	.	.	1ryy	.	.	1ryy	.	.
.	2cc#X 2b- 2g 2e-/	.	.	.	.	.	.	.	.	.
=31	=31	=31	=31	=31	=31	=31	=31	=31	=31	=31
1B-] 1BB-;]	1dd 1b- 1f;	1ryy	.	.	1ryy	.	.	1ryy	.	.
==	==	==	==	==	==	==	==	==	==	==
*-	*-	*-	*-	*-	*-	*-	*-	*-	*-	*-
!!!system-decoration: g1{(g2)}
!!!AIN: 4 empty
!!!ENC: Marcin Jachim
!!!END: 2021-08-12
!!!ENC: Kamil Watkowski
!!!END: 2021-09-09
!!!RDF**kern: > = above
!!!RDF**kern: < = below
